X:1
T:Home of the Soul
T:Home of the Soul
T:Samuel William Beazley
T:James Rowe, 1912
T:Public Domain Courtesy of the Cyber Hymnal™
T:Public Domain Courtesy of the Cyber Hymnal™
C:Samuel William Beazley
Z:Public Domain
Z:Courtesy of the Cyber Hymnal™
%%score ( 1 2 ) 3
L:1/8
Q:1/4=95
M:6/8
K:G
V:1 treble 
V:2 treble 
V:3 bass 
V:1
 [DB][DB][DB] [DB][CA][B,G] | [B,D]3 [B,G]3 | [CA][CA][CA] [CA][B,^G][CA] | [DB]6 | %4
w: 1.~If for the prize we have|stri- ven,|Af- ter our la- bors are|o’er,|
w: 2.~Yes, a sweet rest is re-|main- ing|For the true child- ren of|God,|
w: 3.~Soon, the bright home- land a-|dorn- ing,|We shall be- hold the glad|dawn;|
 [DB][DB][DB] [DB][DA][DG] | [EG]3 [CE]3 | [B,D][B,G][DB] [CA]2 [CA] | [B,G]6 || %8
w: Rest to our souls will be|giv- en,|On the e- ter- nal|shore.|
w: Where there will be no com-|plain- ing,|Ne- ver a chast- ening|rod.|
w: Lean on the Lord till the|morn- ing,|Trust till the night is|gone.|
"^Refrain" BBB BEF | BBB BAB | ccc cFG | BBB B3 | ccc cEF | BBB BAB | ccc cGE | ddd d3 | BBB BEF | %17
w: |||||||||
w: Home of the soul, ~ ~|beau- ti- ful home, ~ ~|There we shall rest, ~ ~|ne- ver to roam;|Free from all care, ~ ~|hap- py and bright, ~ ~|Je- sus is there, ~ ~|He is the light!|Oft, in the storm, ~ ~|
w: Home ~ ~ ~ of the|soul, ~ ~ ~ Bless- èd|king ~ ~ ~ dom of|light ~ ~ ~|Free ~ ~ ~ from all|care, ~ ~ ~ and where|fal ~ ~ ~ eth no|night! ~ ~ ~|Oft, ~ ~ ~ in the|
 BBB BAB | ccc cFG | BBB B3 | [CE][DF][EG] [EA][EG][CE] | [B,D][B,G][DB] [Gd]2 [Gc] | B3 A3 | %23
w: ||||||
w: lone- ly are we, ~ ~|Sigh- ing for home, ~ ~|long- ing for Thee,|Beau- ti- ful home of the|ran- somed, Be- side the|crys- tal|
w: storm ~ ~ ~ we are|sigh ~ ~ ~ing for Thee,|~ ~ ~ ~|~ ~ ~ ~ ~ ~|~ ~ ~ ~ ~|crystal sea,~the|
 G3- [DG]3 |] %24
w: |
w: sea. *|
w: crystal~sea *|
V:2
 x6 | x6 | x6 | x6 | x6 | x6 | x6 | x6 || D4 x2 | G4 x2 | E4 x2 | D6 | F4 x2 | G4 x2 | A4 x2 | F6 | %16
 D4 x2 | G4 x2 | E4 x2 | D6 | x6 | x6 | (G2 G) (F2 F) | G2 E x3 |] %24
V:3
 [G,,G,][G,,G,][G,,G,] [G,,G,][G,,G,][G,,G,] | [G,,G,]3 [G,,G,]3 | %2
 [D,F,][D,F,][D,F,] [D,F,][D,^E,][D,F,] | [G,,G,]6 | [G,,G,][G,,G,][G,,G,] [G,,G,][A,,F,][B,,G,] | %5
 [C,G,]3 [C,G,]3 | [D,G,][D,G,][D,G,] [D,F,]2 [D,F,] | [G,,D,G,]6 || %8
 [G,,G,][G,,G,][G,,G,] [G,,G,] z2 | [G,,G,][G,,G,][G,,G,] [G,,G,] z2 | %10
 [C,G,][C,G,][C,G,] [C,G,] z2 | [G,,G,][G,,G,][G,,G,] [G,,G,]3 | [D,A,][D,A,][D,A,] [D,A,] z2 | %13
 [G,,G,][G,,G,][G,,G,] [G,,G,] z2 | [A,,A,][A,,A,][A,,A,] [A,,A,] z2 | [D,A,][D,A,][D,A,] [D,A,]3 | %16
 [G,,G,][G,,G,][G,,G,] [G,,G,] z2 | [G,,G,][G,,G,][G,,G,] [G,,G,] z2 | %18
 [C,G,][C,G,][C,G,] [C,G,] z2 | [G,,G,][G,,G,][G,,G,] [G,,G,]3 | %20
 [C,G,][C,G,][C,C] [C,C][C,C][C,G,] | [G,,G,][G,,G,][G,,G,] [G,B,]2 [C,E] | %22
 [D,D]2 [D,D] [D,C]2 [D,C] | [G,,B,]2 [G,,C] [G,,B,]3 |] %24

